!!!COM: Beethoven, Ludwig van
!!!CDT: 1770///-1827///
!!!OTL: Piano Sonata no. 18 in E-flat major
!!!OTP: the hunt
!!!ODT: 1794///-1795///
!!!OPS: 31
!!!ONM: 3
!!!OMV: 4
!!!OMD: Presto con fuoco
**kern	**kern	**dynam
*Ipiano	*Ipiano	*Ipiano
*staff2	*staff1	*staff1
*>[I,A,A1,A,A2,B]	*>[I,A,A1,A,A2,B]	*>[I,A,A1,A,A2,B]
*>norep[I,A,A2,B]	*>norep[I,A,A2,B]	*>norep[I,A,A2,B]
*>I	*>I	*>I
*clefF4	*clefG2	*clefG2
*k[b-e-a-]	*k[b-e-a-]	*k[b-e-a-]
*E-:	*E-:	*E-:
*M6/8	*M6/8	*M6/8
*MM240	*MM240	*MM240
8E-\L	8r	p
8G\J	8r	.
*>A	*>A	*>A
=1!|:	=1!|:	=1!|:
8BB-\L	2.r	.
8E-\	.	.
8G\J	.	.
8D\L	.	.
8E-\	.	.
8G\J	.	.
=2	=2	=2
8BB-\L	4r	.
8E-\	.	.
8G\J	8r	.
8D\L	4r	.
8E-\	.	.
8G\J	8bb-'\	.
=3	=3	=3
8BB-\L	(4bb-^\	.
8F\	.	.
8A-\J	8aa-\	.
8En\L	4ff\	.
8F\	.	.
8A-\J	8dd\)	.
=4	=4	=4
8BB-\L	4ee-'\	.
8E-\	.	.
8G\J	8r	.
8D\L	4r	.
8E-\	.	.
8G\J	8b-'\	.
=5	=5	=5
8BB-\L	(4b-/	.
8F\	.	.
8A-\J	8a-/	.
8En\L	4f/	.
8F\	.	.
8A-\J	8d/)	.
=6	=6	=6
4EE-/ 4E-/	4G/ 4e-/	.
8r	8r	.
8r	4r	.
8E-\L	.	.
8G\J	8r	.
=7	=7	=7
8BB-\L	2.r	.
8E-\	.	.
8G\J	.	.
8D\L	.	.
8E-\	.	.
8G\J	.	.
=8	=8	=8
8BB-\L	4r	.
8E-\	.	.
8G\J	8r	.
8D\L	4r	.
8E-\	.	.
8G\J	8bb-'\	.
=9	=9	=9
8BB-\L	(4bb-^\	.
8F\	.	.
8A-\J	8aa-\	.
8En\L	4ff\	.
8F\	.	.
8A-\J	8dd\)	.
=10	=10	=10
8BB-\L	4ee-'\	.
8E-\	.	.
8G\J	8r	.
8D\L	4r	.
8E-\	.	.
8G\J	8b-'\	.
=11	=11	=11
8BB-\L	(4b-^/	.
8F\	.	.
8A-\J	8a-/	.
8En\L	4f/	.
8F\	.	.
8A-\J	8d/)	.
=12	=12	=12
4EE-/ 4E-/	4G/ 4e-/	.
8r	8r	.
4r	8B-/L	f
.	8r	.
8r	(8B-/J	.
=13	=13	=13
4EE-/ 4E-/	8G/) 8e-/L	.
.	8r	.
8r	(8e-/J	.
*clefG2	*	*
4b-\	8B-/L)	.
.	8r	.
8r	(8B-/J	.
=14	=14	=14
4r	8G/) 8e-/L	.
.	8r	.
8r	(8e-/J	.
4b-\	8B-/L)	.
.	8r	.
8r	(8B-/J	.
=15	=15	=15
4r	8G/) 8e-/L	.
.	8r	.
8r	(8e-/J	.
4b-\	8B-/L)	.
.	8r	.
8r	(8B-/J	.
=16	=16	=16
4b-\	8d/) 8f/L	.
.	8r	.
8r	(8d/ 8f/J	.
4r	8B-/L)	.
.	8r	.
8r	(8B-/J	.
*clefF4	*	*
=17	=17	=17
4BBB-/ 4BB-/	8d/) 8f/L	.
.	8r	.
8r	(8d/ 8f/J	.
*clefG2	*	*
4b-\	8B-/L)	.
.	8r	.
8r	(8B-/J	.
=18	=18	=18
4r	(8d/) 8f/L	.
.	8r	.
8r	8d/ 8f/J	.
4b-\	8B-/L)	.
.	8r	.
8r	(8B-/J	.
=19	=19	=19
4r	8d/) 8f/L	.
.	8r	.
8r	(8d/ 8f/J	.
4b-\	8B-/L)	.
.	8r	.
8r	(8B-/J	.
=20	=20	=20
*^	*	*
4r	4b-\	8e-/) 8g/L	.
.	.	8r	.
8r	8r	(8g/J	.
*v	*v	*	*
*clefF4	*	*
*^	*	*
4.E-/	[4.E-\	8e-/L)	p
.	.	8r	.
.	.	(8e-/J	.
=21	=21	=21	=21
2.E-/_	4.C\	8a-/L)	.
.	.	8r	.
.	.	(8a-/J	.
.	4.AA-\	8cc\L)	.
.	.	8r	.
.	.	(8cc\J	.
=22	=22	=22	=22
4E-/]	4GG\	8b-\L)	.
.	.	8r	.
8r	8r	(8b-\J	.
[4.E-^/	4.E-\	8ee-\L)	.
.	.	8r	.
.	.	(8ee-\J	.
=23	=23	=23	=23
2.E-/_	4.C\	8aa-\L)	.
.	.	8r	.
.	.	(8aa-\J	.
.	4.AA-\	8ccc\L)	.
.	.	8r	.
.	.	(8ccc\J	.
=24	=24	=24	=24
4E-/]	4GG\	8bb-\L)	.
.	.	8r	.
8r	8r	(8b-\J	.
4.E-^/	[4.E-\	8e-/L)	.
.	.	8r	.
.	.	(8e-/J	.
=25	=25	=25	=25
2.E-/_	4.C\	8a-/L)	.
.	.	8r	.
.	.	(8a-/J	.
.	4.AA-\	8cc\L)	.
.	.	8r	.
.	.	(8cc\J	.
=26	=26	=26	=26
4E-/]	4GG\	8b-/L)	.
.	.	8r	.
8r	8r	(8g/J	.
4AA-/ 4F/	4r	8f/L)	.
.	.	8r	.
8r	8r	(8a-/J	.
*v	*v	*	*
=27	=27	=27
4BB-\ 4G\	8e-/L)	.
.	8r	.
8r	(8g/J	.
4BB-\ 4A-\	8d/L)	.
.	8r	.
8r	(8f/J	.
=28	=28	=28
*^	*	*
4r	4EE-/	4e-/)	.
8r	8r	8r	.
[4.E-\	4.E-^/	8e-/L	.
.	.	8r	.
.	.	(8e-/J	.
=29	=29	=29	=29
2.E-/_	4.C-\	8a-/L)	.
.	.	8r	.
.	.	8a-/J	.
.	4.AA-\	8cc-\L	.
.	.	8r	.
.	.	(8cc-\J	.
=30	=30	=30	=30
4E-/]	4GG-\	8b-\L)	.
.	.	8r	.
8r	8r	(8b-\J	.
4.E-^/	[4.E-\	8ee-\L)	.
.	.	8r	.
.	.	(8ee-\J	.
=31	=31	=31	=31
2.E-/_	4.C-\	8aa-\L)	.
.	.	8r	.
.	.	(8aa-\J	.
.	4.AA-\	8ccc-\L)	.
.	.	8r	.
.	.	(8ccc-\J	.
=32	=32	=32	=32
4E-/]	4GG-\	8bb-\L)	<
.	.	8r	.
8r	8r	(8b-\J	.
4.E-^/	[4.E-\	8e-/L)	.
.	.	8r	.
.	.	(8e-/J	.
=33	=33	=33	=33
2.E-/]	4.Cn\	8an/L)	.
.	.	8r	.
.	.	(8a/J	.
.	4.BB-\	8cc\L)	.
.	.	8r	.
.	.	(8cc\J	.
*v	*v	*	*
=34	=34	=34
*	*^	*
8AAn\L	4.f/)	[2.f\	f
8c\	.	.	.
8e-\J	.	.	.
8An\L	[4.ff/	.	.
8c\	.	.	.
8e-\J	.	.	.
=35	=35	=35	=35
8An\L	4.ff/]	4.f\]	.
8c\	.	.	.
8e-\J	.	.	.
8A\L	4r	4ff\	.
8c\	.	.	.
8e-\J	8r	8r	.
*	*v	*v	*
=36	=36	=36
8An\L	4ff\	.
8c\	.	.
8e-\J	8r	.
8A\L	4ff\	.
8c\	.	.
8e-\J	8r	.
=37	=37	=37
8An\L	4ff\	.
8c\	.	.
8e-\J	8r	.
8d\L	4ff\	.
8c\	.	.
8B-\J	8r	.
=38	=38	=38
*	*^	*
8An\L	(4.ff/	[2.ff\	.
8c\	.	.	.
8e-\J	.	.	.
8A\L	[4.fff/)	.	.
8c\	.	.	.
8e-\J	.	.	.
*	*v	*v	*
=39	=39	=39
8An\L	4.ff\] 4.fff\]	.
8c\	.	.
8e-\J	.	.
8A\L	4ff\ 4fff\	.
8c\	.	.
8e-\J	8r	.
=40	=40	=40
8An\L	4ff\ 4fff\	.
8c\	.	.
8e-\J	8r	.
8A\L	4ff\ 4fff\	.
8c\	.	.
8e-\J	8r	.
=41	=41	=41
8An\L	4ff\ 4fff\	.
8c\	.	.
8e-\J	8r	.
8A\L	4ff\ 4fff\	.
8c\	.	.
8e-\J	8r	.
=42	=42	=42
8An\L	4ff\ 4fff\	.
8c\	.	.
8e-\J	8aan\	.
8d\L	8bb-\L	.
8c\	8ccc\	.
8B-\J	8ddd\J	.
=43	=43	=43
8An\L	4r	.
8B-\	.	.
8c\J	8ff#\	.
8B-\L	8gg\L	.
8A\	8aan\	.
8G\J	8bb-\J	.
=44	=44	=44
8F\L	4r	.
8G\	.	.
8A-\J	8dd\	.
8G\L	8ee-\L	.
8F\	8ffn\	.
8E-\J	8gg\J	.
=45	=45	=45
8D\L	4r	.
8E-\	.	.
8F\J	8bn\	.
8E-\L	8cc\L	.
8D\	8dd\	.
8C\J	8ee-\J	.
=46	=46	=46
4EE-/	8r	.
.	8c/L	.
8r	8e-/J	.
4r	8g/L	.
.	8e-/	.
8r	8g/J	.
=47	=47	=47
4E-\ 4G\ 4c\	8cc\L	.
.	8g\	.
8r	8cc\J	.
4r	8ee-\L	.
.	8cc\	.
8r	8ee-\J	.
=48	=48	=48
4r	8gg\L	.
.	8ff\	.
8r	8ee-\J	.
8E-\L	8dd\L	.
8G\	8ee-\	.
8c\J	8cc\J	.
=49	=49	=49
8F\L	8ff\L	.
8B-\	8dd\	.
8d\J	8b-\J	.
8F\L	8ee-\L	.
8c\	8cc\	.
8e-\J	8an\J	.
=50	=50	=50
8An\L	8r	.
8c\	(8fff\L	.
8e-\J	8aan\J	.
8d\L	8bb-\L	.
8c\	8ccc\	.
8B-\J	8ddd\J)	.
=51	=51	=51
8An\L	8r	.
8B-\	(8ddd\L	.
8c\J	8ff#\J	.
8B-\L	8gg\L	.
8A\	8aan\	.
8G\J	8bb-\J)	.
=52	=52	=52
8F\L	8r	.
8G\	(8bb-\L	.
8A-\J	8dd\J	.
8G\L	8ee-\L	.
8F\	8ff\	.
8E-\J	8gg\J)	.
=53	=53	=53
8D\L	8r	.
8E-\	(8gg\L	.
8F\J	8bn\J	.
8E-\L	8cc\L	.
8D\	8dd\	.
8C\J	8ee-\J)	.
=54	=54	=54
4EE-/	8r	.
.	8G/L	.
8r	8c/J	.
4r	8e-/L	.
.	8c/	.
8r	8e-/J	.
=55	=55	=55
4E-\ 4G\	8g/L	.
.	8c/	.
8r	8e-/J	.
4r	8g/L	.
.	8e-/	.
8r	8g/J	.
=56	=56	=56
4E-\ 4G\ 4c\	8cc/L	.
.	8e-/	.
8r	8g/J	.
4r	8cc/L	.
.	8g/	.
8r	8cc/J	.
=57	=57	=57
4E-\ 4G\ 4c\ 4e-\	8ee-\L	.
.	8g\	.
8r	8cc\J	.
4r	8ee-\L	.
.	8cc\	.
8r	8ee-\J	.
=58	=58	=58
8r	8gg\L	.
8e-\L	8g\	.
8c\J	8cc\J	.
8G\L	8ee-\L	.
8c\	8cc\	.
8G\J	8ee-\J	.
=59	=59	=59
8E-\L	8gg\L	.
8e-\	8g\	.
8c\J	8cc\J	.
8G\L	8ee-\L	.
8c\	8cc\	.
8G\J	8ee-\J	.
=60	=60	=60
4E-\	(8gg\L	.
.	8g\	.
8r	8f#\J	.
4r	8g\L	.
.	8a-\	.
8r	8an\J	.
=61	=61	=61
2.r	8b-\L	.
.	8bn\	.
.	8cc\J	.
.	8cc#\L	.
.	8dd\	.
.	8ee-\J	.
=62	=62	=62
4r	8een\L	.
.	8ff\	.
8r	8ff#\J	.
4E-\ 4G\ 4c\	8gg\L	.
.	8ee-\	.
8r	8cc\J)	.
=63	=63	=63
4F\ 4B-\ 4d\	4b-\	.
8r	8r	.
4F\ 4An\ 4c\ 4e-\	4.cc\	.
8r	.	.
=64	=64	=64
8BB-\L	8b-\L	p
8F\	8r	.
8B-\J	(8b-\J	.
8d\L	8dd'\L)	.
8B-\	8r	.
8F\J	(8dd\J	.
=65	=65	=65
8BB-\L	8ff'\L)	.
8F\	8r	.
8B-\J	(8ff\J	.
8d\L	8bb-'\L)	.
8B-\	8r	.
8F\J	(8bb-\J	.
=66	=66	=66
8BB-\L	8ddd'\L)	.
8F\	8r	.
8B-\J	(8ddd\J	.
8d\L	8fff'\L)	.
8B-\	8r	.
8F\J	(8bb-\J	.
=67	=67	=67
8BB-\L	8ddd'\L)	.
8F\	8r	.
8B-\J	(8ff\J	.
8d\L	8bb-'\L)	.
8B-\	8r	.
8F\J	(8dd\J	.
=68	=68	=68
8BB-\L	8ff'\L)	.
8F\	8r	.
8B-\J	(8b-\J	.
8d\L	8dd'\L)	.
8B-\	8r	.
8F\J	(8cc\J	.
=69	=69	=69
8FF\L	8ee-'\L)	.
8F\	8r	.
8An\J	(8an\J	.
8c\L	8cc'\L)	.
8A\	8r	.
8F\J	(8a\J	.
=70	=70	=70
8BB-\L	8b-'\L)	.
8F\	8r	.
8B-\J	(8b-\J	.
8d\L	8dd'\L)	.
8B-\	8r	.
8F\J	(8dd\J	.
=71	=71	=71
8BB-\L	8ff'\L)	.
8F\	8r	.
8B-\J	(8ff\J	.
8d\L	8bb-'\L)	.
8B-\	8r	.
8F\J	(8bb-\J	.
=72	=72	=72
8BB-\L	8ddd'\L)	.
8F\	8r	.
8B-\J	(8ddd\J	.
8d\L	8fff'\L)	.
8B-\	8r	.
8F\J	(8bb-\J	.
=73	=73	=73
8BB-\L	8ddd'\L)	.
8F\	8r	.
8B-\J	(8ff\J	.
8d\L	8bb-'\L)	.
8B-\	8r	.
8F\J	(8dd\J	.
=74	=74	=74
8BB-\L	8ff'\L)	<
8F\	8r	.
8B-\J	(8b-\J	.
8d\L	8dd'\L)	.
8B-\	8r	.
8F\J	(8f\J	.
=75	=75	=75
8BB-\L	8b-'/L)	.
8D\	8r	.
8F\J	(8d/J	.
8B-\L	8f'/)	.
8F\	8r	.
8D\J	(8B-/	.
=76	=76	=76
4BB-/	8d'/L)	.
.	8r	.
*	*clefF4	*clefF4
8r	(8F/J	.
4BBB-/	8B-'\L)	ff
.	8r	.
8r	(8D\J	.
=77	=77	=77
4BBB-/	8F'\L)	.
.	8r	.
8r	(8En\J	.
4BBB-/	8G'\L)	.
.	8r	.
8r	(8F\J	.
=78	=78	=78
*>A1	*>A1	*>A1
[2.BBB-/	[2.D\ [2.F\ [2.A-\)	.
=79	=79	=79
4.BBB-/_	4.D\_ 4.F\] (4.A-\_	.
8BBB-/]	8D;\] 8F;\ 8A-;\])	.
8E-\L	8r	p
8G\J	8r	.
=80:|!	=80:|!	=80:|!
*>A2	*>A2	*>A2
[2.BBB-/	[2.D\ [2.F\ [2.A-\	.
=81	=81	=81
2.BBB-/]	2.D;\] 2.F;\] 2.A-;\]	.
=82	=82	=82
*>B	*>B	*>B
4r	4r	.
8r	(8F\	ff
4DD-/	8A-\L)	.
.	8r	.
8r	(8F\J	.
=83	=83	=83
4DD-/	8A-\L)	.
.	8r	.
8r	(8G-\J	.
4DD-/	8B-\L)	.
.	8r	.
8r	(8A-\J	.
=84	=84	=84
[2.DD-/	[2.F\ [2.A-\ [2.c-\)	.
=85	=85	=85
4.DD-/]	4.F;\] 4.A-;\] 4.c-;\]	.
*	*clefG2	*clefG2
4r	8d-/L	p
.	8r	.
8r	(8d-/J	.
=86	=86	=86
4GGG-/ 4GG-/	8B-/) 8g-/L	.
.	8r	.
8r	(8g-/J	.
*clefG2	*	*
4dd-\	8d-/L)	.
.	8r	.
8r	(8d-/J	.
=87	=87	=87
4r	8B-/) 8g-/L	.
.	8r	.
8r	(8g-/J	.
4dd-\	8d-/L)	.
.	8r	.
8r	(8d-/J	.
=88	=88	=88
4r	8B-/) 8g-/L	.
.	8r	.
8r	(8g-/J	.
4dd-\	8d-/L)	.
.	8r	.
8r	(8d-/J	.
=89	=89	=89
4dd-\	8f/) 8a-/L	.
.	8r	.
8r	(8f/ 8a-/J	.
4r	8d-/L)	.
.	8r	.
8r	(8d-/J	.
*clefF4	*	*
=90	=90	=90
4DD-/ 4D-/	8f/) 8a-/L	.
.	8r	.
8r	(8f/ 8a-/J	.
*clefG2	*	*
4dd-\	8d-/L)	.
.	8r	.
8r	(8d-/J	.
=91	=91	=91
4r	8f/) 8a-/L	.
.	8r	.
8r	(8f/ 8a-/J	.
4dd-\	8d-/L)	.
.	8r	.
8r	(8d-/J	.
=92	=92	=92
4r	8f/) 8a-/L	.
.	8r	.
8r	(8f/ 8a-/J	.
4dd-\	8d-/L)	.
.	8r	.
8r	(8d-/J	.
=93	=93	=93
4dd-\	4g-/) 4b-/	.
*clefF4	*	*
8r	8r	.
4CC#/	4cc#\	ff
8CC#/	(8cc#\	.
=94	=94	=94
4FFF#/ 4FF#/	4f#\ 4ff#\)	.
8FF#/	(8ff#\	.
4CC#/	4cc#\)	.
8CC#/	(8cc#\	.
=95	=95	=95
4FFF#/ 4FF#/	4f#\ 4ff#\)	.
8FF#/	(8ff#\	.
4CC#/	4cc#\)	.
8CC#/	(8cc#\	.
=96	=96	=96
4FFF#/ 4FF#/	4f#\ 4ff#\)	.
8FF#/	(8ff#\	.
4CC#/	4cc#\)	.
8CC#/	(8cc#\	.
=97	=97	=97
4FFF#/ 4FF#/	4f#\ 4ff#\)	.
(8AA#/	(8aa#\	.
4C#/)	4ccc#\)	>
8FF#/	8ff#\	.
=98	=98	=98
8BBBn/L	2.dd\ 2.ddd\	ff
8DD/	.	.
8FF#/J	.	.
8BBn/L	.	.
8DD/	.	.
8FF#/J	.	.
=99	=99	=99
8BBBn/L	4bn'\ 4bbn'\	.
8DD/	.	.
8FF#/J	8r	.
8BBn/L	4f#'\ 4ff#'\	.
8DD/	.	.
8FF#/J	8r	.
=100	=100	=100
8BBBn/L	4d'/ 4dd'/	.
8DD/	.	.
8FF#/J	8r	.
8BBn/L	4Bn'/ 4bn'/	.
8DD/	.	.
8FF#/J	8r	.
=101	=101	=101
8BBBn\L	4F#'/ 4f#'/	.
8DD\	.	.
8FF#\J	8r	.
8BBn\L	4D'/ 4d'/	.
8BBB\	.	.
8DD\J	(8dd\	.
=102	=102	=102
4GGG/ 4GG/	4g\ 4gg\)	.
8GG/	(8gg\	.
4DD/	4dd\)	.
8DD/	(8dd\	.
=103	=103	=103
4GGG/ 4GG/	4g\ 4gg\)	.
8GG/	(8gg\	.
4DD/	4dd\)	.
8DD/	(8dd\	.
=104	=104	=104
4GGG/ 4GG/	4g\ 4gg\)	.
(8GG/	(8gg\	.
4DD/)	4dd\)	.
(8DD/	8dd\	.
=105	=105	=105
4GGG/) 4GG/	4g\ 4gg\	.
(8BBn/	8bbn\	.
4D/)	4ddd\	.
8GG/	8gg\	.
=106	=106	=106
8CCn/L	2.ee-\ 2.eee-\	ff
8EE-/	.	.
8GG/J	.	.
8C/L	.	.
8EE-/	.	.
8GG/J	.	.
=107	=107	=107
8CC/L	4cc'\ 4ccc'\	.
8EE-/	.	.
8GG/J	8r	.
8C/L	4g'\ 4gg'\	.
8EE-/	.	.
8GG/J	8r	.
=108	=108	=108
8CC/L	4e-'\ 4ee-'\	.
8EE-/	.	.
8GG/J	8r	.
8C/L	4c'/ 4cc'/	.
8EE-/	.	.
8GG/J	8r	.
=109	=109	=109
8CC\L	4G'/ 4g'/	.
8EE-\	.	.
8GG\J	8r	.
8C\L	4E-'/ 4e-'/	.
8CC\	.	.
8C\J	8r	.
=110	=110	=110
8AAA-/L	2.ee-\ 2.eee-\	ff
8CC/	.	.
8EE-/J	.	.
8AA-/L	.	.
8CC/	.	.
8EE-/J	.	.
=111	=111	=111
8AAA-/L	4cc'\ 4ccc'\	.
8CC/	.	.
8EE-/J	8r	.
8AA-/L	4a-'\ 4aa-'\	.
8CC/	.	.
8EE-/J	8r	.
=112	=112	=112
8AAA-/L	4e-'/ 4ee-'/	.
8CC/	.	.
8EE-/J	8r	.
8AA-/L	4c'/ 4cc'/	.
8CC/	.	.
8EE-/J	8r	.
=113	=113	=113
8AAA-\L	4A-'/ 4a-'/	.
8CC\	.	.
8EE-\J	8r	.
8AA-\L	4E-'/ 4e-'/	.
8AAA-\	.	.
8AA-\J	8r	.
=114	=114	=114
8FFF/L	2.ff\ 2.fff\	ff
8AAA-/	.	.
8DD-/J	.	.
8FF/L	.	.
8AAA-/	.	.
8DD-/J	.	.
=115	=115	=115
8FFF/L	4dd-'\ 4ddd-'\	.
8AAA-/	.	.
8DD-/J	8r	.
8FF/L	4a-'\ 4aa-'\	.
8AAA-/	.	.
8DD-/J	8r	.
=116	=116	=116
8FFF/L	4f'\ 4ff'\	.
8AAA-/	.	.
8DD-/J	8r	.
8FF/L	4d-'/ 4dd-'/	.
8AAA-/	.	.
8DD-/J	8r	.
=117	=117	=117
8FFF\L	4A-'/ 4a-'/	.
8AAA-\	.	.
8DD-\J	8r	.
8FF\L	4F'/ 4f'/	.
8AAA-\	.	.
8DD-\J	8r	.
=118	=118	=118
8GGG/L	2.bn\ 2.bbn\	ff
8BBBn/	.	.
8DDn/J	.	.
8GG/L	.	.
8BBB/	.	.
8DD/J	.	.
=119	=119	=119
8GGG/L	4f'\ 4ff'\	.
8BBBn/	.	.
8DD/J	8r	.
8GG/L	4d'/ 4dd'/	.
8BBB/	.	.
8DD/J	8r	.
=120	=120	=120
8GGG\L	4Bn'/ 4bn'/	.
8BBBn\	.	.
8DD\J	8r	.
8GG\L	4F'/ 4f'/	.
8BBB\	.	.
8DD\J	8r	.
=121	=121	=121
8GGG\L	4D'/ 4d'/	.
8BBBn\	.	.
8DD\J	8r	.
8GG\L	4BBn/ 4Bn/	.
8FF\	.	.
8DD\J	8G/	.
*	*clefF4	*clefF4
=122	=122	=122
4CC/	8En\ 8c\L	.
.	8r	.
8r	(8c\J	.
*clefG2	*	*
4g/	8G\L)	.
.	8r	.
8r	(8G\J	.
=123	=123	=123
4r	8En\ 8c\L)	.
.	8r	.
8r	(8c\J	.
4g/	8G\L)	.
.	8r	.
8r	(8G\J	.
=124	=124	=124
4r	8En\ 8c\L)	.
.	8r	.
8r	(8c\J	.
4g/	8G\L)	.
.	8r	.
8r	(8G\J	.
=125	=125	=125
4g/	8Bn\ 8d\L)	.
.	8r	.
8r	8B\ (8d\J	.
4r	8G\L)	.
.	8r	.
8r	(8G\J	.
*clefF4	*	*
=126	=126	=126
4GGG/ 4GG/	8Bn\ 8d\L)	.
.	8r	.
8r	8B\ (8d\J	.
*clefG2	*	*
4g/	8G\L)	.
.	8r	.
8r	(8G\J	.
=127	=127	=127
4r	8Bn\ 8d\L)	.
.	8r	.
8r	8B\ (8d\J	.
4g/	8G\L)	.
.	8r	.
8r	(8G\J	.
=128	=128	=128
4r	8Bn\ 8d\L)	.
.	8r	.
8r	8B\ (8d\J	.
4g/	8G\L)	.
.	8r	.
8r	(8G\J	.
=129	=129	=129
4g/	4c\ 4en\)	.
8r	8r	.
*clefF4	*	*
4B-'\	4r	f
(8B-\	8r	.
*	*clefG2	*clefG2
=130	=130	=130
4d-\)	8r	.
.	8en/L	f
8r	8g/J	.
4B-'\	8b-\L	.
.	8dd-\	.
(8B-\	8een\J	.
=131	=131	=131
4d-\)	8r	.
.	8g\L	.
8r	8b-\J	.
4B-'\	8dd-\L	.
.	8een\	.
(8B-\	8gg\J	.
=132	=132	=132
4d-\)	8r	.
.	8een\L	.
8r	8gg\J	.
4B-'\	8bb-\L	.
.	8ddd-\	.
(8B-\	8eeen\J	.
=133	=133	=133
8d-\L)	4r	.
8B-\	.	.
8c\J	8r	.
8d-\L	4ee-'\	.
8c\	.	.
8B-\J	8ee-\	.
=134	=134	=134
8An\L	4gg-\	.
8AAn\	.	.
8C\J	8r	.
8F\L	4ee-'\	.
8A\	.	.
8c\J	(8ee-\	.
=135	=135	=135
8r	4gg-\)	.
8C\L	.	.
8F\J	8r	.
8An\L	4ee-'\	.
8c\	.	.
8f\J	(8ee-\	.
=136	=136	=136
8r	4gg-\)	.
8F\L	.	.
8An\J	8r	.
8c\L	4ee-'\	.
8f\	.	.
8an\J	(8ee-\	.
=137	=137	=137
4r	8gg-\L)	.
.	8ee-\	.
8r	8ff\J	.
4A-'\	8gg-\L	.
.	8ff\	.
(8A-\	8ee-\J	.
=138	=138	=138
4c-\)	8ddn/L	.
.	8d/	.
8r	8f/J	.
(4A-'\	8a-/L	.
.	8cc-/	.
8A-\	8dd/J	.
=139	=139	=139
4c-\)	8r	.
.	8f/L	.
8r	8a-/J	.
4A-'\	8cc-'\L	.
.	8dd\	.
(8A-\	8ff\J	.
=140	=140	=140
4c-\)	8r	.
.	8dd\L	.
8r	8ff\J	.
4A-'\	8aa-\L	.
.	8ccc-\	.
(8A-\	8ddd\J	.
=141	=141	=141
8c-\L)	4r	.
8A-\	.	.
8B-\J	8r	.
8c-\L	4ddd-'\	.
8B-\	.	.
8A-\J	8ddd-\	.
=142	=142	=142
8G\L	4fff-\	.
8GG\	.	.
8BB-\J	8r	.
8E-\L	4ddd-'\	.
8G\	.	.
8B-\J	(8ddd-\	.
=143	=143	=143
8r	4fff-\)	.
8BB-\L	.	.
8E-\J	8r	.
8G\L	4ddd-'\	.
8B-\	.	.
8e-\J	(8ddd-\	.
=144	=144	=144
8r	4fff-\)	.
8E-\L	.	.
8G\J	8r	.
8B-\L	4ddd-'\	.
8e-\	.	.
8g\J	(8ddd-\	.
=145	=145	=145
4r	8fff-\L)	.
.	8ddd-\	.
8r	8eee-\J	.
4GG/	8fff-\L	.
.	8eee-\	.
8GG/	8ddd-\J	.
=146	=146	=146
8AA-\L	(8ccc\L	<
8C\	8aa-\	.
8E-\J	8ee-\J	.
8A-\L	8cc\L	.
8c\	8aa-\	.
8e-\J	8ee-\J	.
=147	=147	=147
8A-\L	8ccc\L	.
8c\	8aa-\	.
8e-\J	8ee-\J	.
8a-\L	8cc\L	.
8c\	8aa-\	.
8e-\J	8ee-\J	.
=148	=148	=148
8E-\L	8ccc\L	.
8A-\	8aa-\	.
8c\J	8ee-\J	.
8e-\L	8cc\L	.
8A-\	8aa-\	.
8c\J	8ee-\J	.
=149	=149	=149
8C\L	8ccc\L	.
8E-\	8aa-\	.
8A-\J	8ee-\J	.
8c\L	8cc\L	.
8E-\	8aa-\	.
8A-\J	8ee-\J)	.
=150	=150	=150
[2.AA-\ [2.C\ [2.E-\ [2.A-\	[2.cc\ [2.ee-\ [2.aa-\ [2.ccc\	ff
=151	=151	=151
4AA-\] 4C\] 4E-\] 4A-\]	8cc\] 8ee-\] 8aa-\] 8ccc\L]	.
.	8aa-\	.
8r	8ee-\J	.
4r	8cc\L	.
.	8a-\	.
8r	8e-\J	.
=152	=152	=152
4r	8cc/L	.
.	8a-/	.
8r	8e-/J	.
8c/L	4r	.
8A-/	.	.
8E-/J	8r	.
=153	=153	=153
*^	*	*
8c/L	4r	4r	.
8A-/	.	.	.
8E-/J	8r	8r	.
4r	8C\L	4r	.
.	8AA-\	.	.
8r	8GG\J	8r	.
*v	*v	*	*
=154	=154	=154
8FF/L	(8aa-\L	p
8AA-/	8ff\	.
8C/J	8cc\J	.
8F\L	8a-\L	<
8A-\	8ff\	.
8c\J	8cc\J	.
=155	=155	=155
8F\L	8aa-\L	.
8A-\	8ff\	.
8c\J	8cc\J	.
8f\L	8a-\L	.
8A-\	8ff\	.
8c\J	8cc\J	.
=156	=156	=156
8C\L	8aa-\L	.
8F\	8ff\	.
8A-\J	8cc\J	.
8c\L	8a-\L	.
8F\	8ff\	.
8A-\J	8cc\J	.
=157	=157	=157
8AA-\L	8aa-\L	.
8C\	8ff\	.
8F\J	8cc\J	.
8A-\L	8a-\L	.
8C\	8ff\	.
8F\J	8cc\J)	.
=158	=158	=158
[2.FF/ [2.AA-/ [2.C/ [2.F/	[2.a-\ [2.cc\ [2.ff\ [2.aa-\	ff
=159	=159	=159
4FF/] 4AA-/] 4C/] 4F/]	8a-\] 8cc\] 8ff\] 8aa-\L]	.
.	8ff\	.
8r	8cc\J	.
4r	8a-/L	.
.	8f/	.
8r	8c/J	.
=160	=160	=160
4r	8a-/L	.
.	8f/	.
8r	8c/J	.
8A-/L	4r	.
8F/	.	.
8C/J	8r	.
=161	=161	=161
*^	*	*
8A-/L	4r	4r	.
8F/	.	.	.
8C/J	8r	8r	.
4r	8AA-\L	4r	.
.	8FF\	.	.
8r	8EE-\J	8r	.
*v	*v	*	*
=162	=162	=162
8DDn/L	8aa-\L	p
8FF/	8ff\	.
8BB-/J	8b-\J	<
8D\L	8a-\L	.
8F\	8ff\	.
8B-\J	8b-\J	.
=163	=163	=163
8D\L	8aa-\L	.
8F\	8ff\	.
8B-\J	8b-\J	.
8d\L	8a-\L	.
8F\	8ff\	.
8B-\J	8b-\J	.
=164	=164	=164
8BB-\L	8aa-\L	.
8D\	8ff\	.
8F\J	8b-\J	.
8B-\L	8a-\L	.
8D\	8ff\	.
8F\J	8b-\J	.
=165	=165	=165
8FF/L	8aa-\L	.
8BB-/	8ff\	.
8F/J	8b-\J	.
8DD/L	8a-\L	.
8BB-/	8ff\	.
8D/J	8b-\J	.
=166	=166	=166
8BBB-/ 8BB-/	8a-'\ 8dd'\ 8ff'\ 8aa-'\	.
*	*clefF4	*clefF4
8r	8D\L	p
8r	8F\J	.
4r	8A-\L	.
.	8F\	.
8r	8D\J	.
=167	=167	=167
2.r	8A-\L	.
.	8F\	.
.	8D\J	.
.	8A-\L	.
.	8F\	.
.	8D\J	.
=168	=168	=168
2.r	8A-\L	.
.	8F\	.
.	8D\J	.
.	8A-\L	.
.	8F\	.
.	8D\J	.
=169	=169	=169
2.r	8A-\L	.
.	8F\	.
.	8D\J	.
.	8A-\L	.
.	8F\	.
.	8D\J	.
=170	=170	=170
2.r	8A-\L	.
.	8F\	.
.	8D\J	.
.	8A-\L	.
.	8F\	.
.	8D\J	.
=171	=171	=171
2.r	8A-\L	.
.	8F\	.
.	8D\J	.
.	8A-\L	.
.	8F\	.
.	8D\J	.
=172	=172	=172
2.r	8A-\L	pp
.	8F\	.
.	8D\J	.
.	8A-\L	.
.	8F\	.
.	8D\J	.
=173	=173	=173
4r	8A-\L	.
.	8F\	.
8r	8D\J	.
8D\L	4r	f
8E-\	.	.
8G\J	8r	.
=174	=174	=174
8BB-\L	2.r	.
8E-\	.	.
8G\J	.	.
8D\L	.	.
8E-\	.	.
8G\J	.	.
*	*clefG2	*clefG2
=175	=175	=175
8BB-\L	4r	.
8E-\	.	.
8G\J	8r	.
8D\L	4r	.
8E-\	.	.
8G\J	8bb-'\	p
=176	=176	=176
8BB-\L	(4bb-^\	.
8F\	.	.
8A-\J	8aa-\	.
8En\L	4ff\	.
8F\	.	.
8A-\J	8dd\)	.
=177	=177	=177
8BB-\L	4ee-'\	.
8E-\	.	.
8G\J	8r	.
8D\L	4r	.
8E-\	.	.
8G\J	8b-'\	.
=178	=178	=178
8BB-\L	(4b-^/	.
8F\	.	.
8A-\J	8a-/	.
8En\L	4f/	.
8F\	.	.
8A-\J	8d/)	.
=179	=179	=179
4EE-/ 4E-/	4G/ 4e-/	.
8r	8r	.
8r	4r	.
8E-\L	.	.
8G\J	8r	.
=180	=180	=180
8BB-\L	2.r	.
8E-\	.	.
8G\J	.	.
8D\L	.	.
8E-\	.	.
8G\J	.	.
=181	=181	=181
8BB-\L	4r	.
8E-\	.	.
8G\J	8r	.
8D\L	4r	.
8E-\	.	.
8G\J	8bb-'\	.
=182	=182	=182
8BB-\L	(8bb-^\L	.
8F\	8aa-\	.
8A-\J	8gg\J	.
8En\L	8aa-\L	.
8F\	8ff\	.
8A-\J	8dd\J)	.
=183	=183	=183
8BB-\L	4ee-\	.
8E-\	.	.
8G\J	8r	.
8D\L	4r	.
8E-\	.	.
8G\J	8b-'\	.
=184	=184	=184
8BB-\L	(8b-^/L	.
8F\	8a-/	.
8A-\J	8g/J	.
8En\L	8a-/L	.
8F\	8f/	.
8A-\J	8d/J)	.
=185	=185	=185
4EE-/ 4E-/	4G/ 4e-/	.
8r	8r	.
4r	8B-/L	f
.	8r	.
8r	(8B-/J	.
=186	=186	=186
4EE-/ 4E-/	8G/) 8e-/L	.
.	8r	.
8r	(8e-/J	.
*clefG2	*	*
4b-\	8B-/L)	.
.	8r	.
8r	(8B-/J	.
=187	=187	=187
4r	8G/) 8e-/L	.
.	8r	.
8r	(8e-/J	.
4b-\	8B-/L)	.
.	8r	.
8r	(8B-/J	.
=188	=188	=188
4r	8G/) 8e-/	.
.	8r	.
8r	(8e-/	.
4b-\	8B-/L)	.
.	8r	.
8r	(8B-/J	.
=189	=189	=189
4b-\	8d/) 8f/L	.
.	8r	.
8r	(8d/ 8f/J	.
4r	8B-/L)	.
.	8r	.
8r	(8B-/J	.
*clefF4	*	*
=190	=190	=190
4BBB-/ 4BB-/	8d/) 8f/L	.
.	8r	.
8r	(8d/ 8f/J	.
*clefG2	*	*
4b-\	8B-/L)	.
.	8r	.
8r	(8B-/J	.
=191	=191	=191
4r	8d/) 8f/L	.
.	8r	.
8r	(8d/ 8f/J	.
4b-\	8B-/L)	.
.	8r	.
8r	(8B-/J	.
=192	=192	=192
4r	8d/) 8f/L	.
.	8r	.
8r	(8d/ 8f/J	.
4b-\	8B-/L)	.
.	8r	.
8r	(8B-/J	.
=193	=193	=193
*^	*	*
4r	4b-\	4e-/) 4g/	.
8r	8r	8r	.
*v	*v	*	*
*clefF4	*	*
*^	*	*
4.E-/	[4.E-\	8e-/L	p
.	.	8r	.
.	.	(8e-/J	.
=194	=194	=194	=194
2.E-/_	4.C\	8a-/L)	.
.	.	8r	.
.	.	(8a-/J	.
.	4.AA-\	8cc\L)	.
.	.	8r	.
.	.	(8cc\J	.
=195	=195	=195	=195
4E-/]	4GG\	8b-\L)	.
.	.	8r	.
8r	8r	(8b-\J	.
4.E-/	[4.E-\	8ee-\L)	.
.	.	8r	.
.	.	(8ee-\J	.
=196	=196	=196	=196
2.E-/_	4.C\	8aa-\L)	.
.	.	8r	.
.	.	(8aa-\J	.
.	4.AA-\	8ccc\L)	.
.	.	8r	.
.	.	(8ccc\J	.
=197	=197	=197	=197
4E-/]	4GG\	8bb-\L)	.
.	.	8r	.
8r	8r	(8b-\J	.
4.E-/	[4.E-\	8e-/L)	.
.	.	8r	.
.	.	(8e-/J	.
=198	=198	=198	=198
2.E-/_	4.C\	8a-/L)	.
.	.	8r	.
.	.	(8a-/J	.
.	4.AA-\	8cc\L)	.
.	.	8r	.
.	.	(8cc\J	.
*v	*v	*	*
=199	=199	=199
4GG/ 4E-/]	8b-/L)	.
.	8r	.
8r	(8g/J	.
4AA-/ 4F/	8f/L)	.
.	8r	.
8r	(8a-/J	.
=200	=200	=200
4BB-\ 4G\	8e-/L)	.
.	8r	.
8r	(8g/J	.
4BB-\ 4A-\	8d/L)	.
.	8r	.
8r	(8f/J	.
=201	=201	=201
*^	*	*
4r	4EE-/	4e-/)	.
8r	8r	8r	.
4.E-^/	[4.E-\	8e-/L	.
.	.	8r	.
.	.	(8e-/J	.
=202	=202	=202	=202
2.E-/_	4.C-\	8a-/L)	.
.	.	8r	.
.	.	(8a-/J	.
.	4.AA-\	8cc-\L)	.
.	.	8r	.
.	.	(8cc-\J	.
=203	=203	=203	=203
4E-/]	4GG-\	8b-\L)	.
.	.	8r	.
8r	8r	(8b-\J	.
4.E-^/	[4.E-\	8ee-\L)	.
.	.	8r	.
.	.	(8ee-\J	.
=204	=204	=204	=204
2.E-/_	4.C-\	8aa-\L)	.
.	.	8r	.
.	.	(8aa-\J	.
.	4.AA-\	8ccc-\L)	.
.	.	8r	.
.	.	(8ccc-\J	.
=205	=205	=205	=205
4E-/]	4GG-\	8bb-\L)	.
.	.	8r	.
8r	8r	(8b-\J	.
4.G-^/	[4.G-\	8g-/L)	.
.	.	8r	.
.	.	(8g-/J	.
=206	=206	=206	=206
2.G-/]	4.E-\	8cc-\L)	.
.	.	8r	.
.	.	(8cc-\J	.
.	4.C-\	8ee-\L)	.
.	.	8r	.
.	.	(8ee-\J	.
=207	=207	=207	=207
4.G-/	4BB-\	(8dd-\L)	.
.	.	8r	.
.	8r	8dd-\J	.
4.G-^/	4.G-\	8gg-\L)	.
.	.	8r	.
.	.	(8gg-\J	.
=208	=208	=208	=208
[2.G-/	4.E-\	8ccc-\L)	.
.	.	8r	.
.	.	(8ccc-\J	.
.	4.C-\	8eee-\L)	.
.	.	8r	.
.	.	(8eee-\J	.
=209	=209	=209	=209
4G-/]	4BB-\	8ddd-\L)	.
.	.	8r	.
8r	8r	(8dd-\J	.
4r	4.An\	8g-/L)	<
.	.	8r	.
8r	.	(8g-/J	.
*v	*v	*	*
=210	=210	=210
4.A-\	8cc\L)	.
.	8r	.
.	(8cc\J	.
4.G-\	8ee-\L)	.
.	8r	.
.	(8ee-\J	.
=211	=211	=211
8F\L	[2.dd-\)	f
8A-\	.	.
8c-\J	.	.
8F\L	.	.
8A-\	.	.
8c-\J	.	.
=212	=212	=212
8F\L	4.dd-\]	.
8A-\	.	.
8c-\J	.	.
8F\L	4dd-\	.
8A-\	.	.
8c-\J	8r	.
=213	=213	=213
8F\L	4dd-\	.
8A-\	.	.
8c-\J	8r	.
8F\L	4dd-\	.
8A-\	.	.
8c-\J	8r	.
=214	=214	=214
8F\L	4dd-\	.
8A-\	.	.
8c-\J	8r	.
8B-\L	4dd-\	.
8A-\	.	.
8G-\J	8r	.
=215	=215	=215
*	*^	*
8F\L	(4.dd-/	[2.dd-\	.
8A-\	.	.	.
8c-\J	.	.	.
8F\L	[4.ddd-/)	.	.
8A-\	.	.	.
8c-\J	.	.	.
*	*v	*v	*
=216	=216	=216
8F\L	4.dd-\] 4.ddd-\]	.
8A-\	.	.
8c-\J	.	.
8F\L	4dd-\ 4ddd-\	.
8A-\	.	.
8c-\J	8r	.
=217	=217	=217
8F\L	4dd-\ 4ddd-\	.
8A-\	.	.
8c-\J	8r	.
8F\L	4dd-\ 4ddd-\	.
8A-\	.	.
8c-\J	8r	.
=218	=218	=218
8F\L	4dd-\ 4ddd-\	.
8A-\	.	.
8c-\J	8r	.
8F\L	4dd-\ 4ddd-\	.
8A-\	.	.
8c-\J	8r	.
=219	=219	=219
8F\L	4dd-\ 4ddd-\	f
8A-\	.	.
8c-\J	8ff\	.
8B-\L	8gg-\L	.
8A-\	8aa-\	.
8G-\J	8bb-\J	.
=220	=220	=220
8F\L	4r	.
8G-\	.	.
8A-\J	8ddn\	.
8G-\L	8ee-\L	.
8F\	8ff\	.
8E-\J	8gg-\J	.
=221	=221	=221
8D-\L	4r	.
8E-\	.	.
8F-\J	8b-\	.
8E-\L	8cc-\L	.
8D-\	8dd-\	.
8C-\J	8ee-\J	.
=222	=222	=222
8BB-/L	4r	.
8C-/	.	.
8D-/J	8gn/	.
8C-/L	8a-\L	.
8BB-/	8b-\	.
8AA-/J	8cc-\J	.
=223	=223	=223
4CC-/	8r	.
.	8A-/L	.
8r	8c-/J	.
4r	8e-/L	.
.	8c-/	.
8r	8e-/J	.
=224	=224	=224
4C-\ 4E-\ 4A-\	8a-/L	.
.	8e-/	.
8r	8a-/J	.
4r	8cc-/L	.
.	8a-/	.
8r	8cc-/J	.
=225	=225	=225
4r	8ee-\L	.
.	8dd-\	.
8r	8cc-\J	.
8C-\L	8b-\L	.
8E-\	8cc-\	.
8A-\J	8a-\J	.
=226	=226	=226
8D-\L	8dd-/L	.
8G-\	8b-/	.
8B-\J	8g-/J	.
8D-\L	8cc-/L	.
8A-\	8a-/	.
8c-\J	8f/J	.
=227	=227	=227
8F\L	8r	.
8A-\	(8ddd-\L	.
8c-\J	8ff\J	.
8B-\L	8gg-\L	.
8A-\	8aa-\	.
8G-\J	8bb-\J)	.
=228	=228	=228
8F\L	8r	.
8G-\	(8bb-\L	.
8A-\J	8ddn\J	.
8G-\L	8ee-\L	.
8F\	8ff\	.
8E-\J	8gg-\J)	.
=229	=229	=229
8D-\L	8r	.
8E-\	(8gg-\L	.
8F-\J	8b-\J	.
8E-\L	8cc-\L	.
8D-\	8dd-\	.
8C-\J	8ee-\J)	.
=230	=230	=230
8BB-/L	8r	.
8C-/	(8ee-\L	.
8D-/J	8gn\J	.
8C-/L	8a-\L	.
8BB-/	8b-\	.
8AA-/J	8cc-\J)	.
=231	=231	=231
4CC-/	8r	.
.	8A-/L	.
8r	8c-/J	.
4r	8e-/L	.
.	8c-/	.
8r	8e-/J	.
=232	=232	=232
4C-\ 4E-\ 4A-\	8a-/L	.
.	8e-/	.
8r	8a-/J	.
4r	8cc-/L	.
.	8a-/	.
8r	8cc-/J	.
=233	=233	=233
4C-\ 4E-\ 4A-\ 4c-\	8ee-\L	.
.	8e-\	.
8r	8a-\J	.
4r	8cc-\L	.
.	8a-\	.
8r	8cc-\J	.
*clefG2	*	*
=234	=234	=234
4c-/ 4e-/ 4a-/	8ee-\L	.
.	8cc-\	.
8r	8ee-\J	.
4r	8aa-\L	.
.	8ee-\	.
8r	8aa-\J	.
=235	=235	=235
8r	8ccc-\L	.
8cc-/L	8ee-\	.
8a-/J	8aa-\J	.
8e-/L	8ccc-\L	.
8a-/	8aa-\	.
8e-/J	8ccc-\J	.
=236	=236	=236
8c-/L	8eee-\L	.
8cc-/	8ee-\	.
8a-/J	8aa-\J	.
8e-/L	8ccc-\L	.
8a-/	8aa-\	.
8e-/J	8ccc-\J	.
=237	=237	=237
4c-/	8eee-\L	.
.	(8ee-\	.
8r	8ddn\J	.
4r	8ee-\L	.
.	8een\	.
8r	8ff\J)	.
=238	=238	=238
2.r	(8gg-\L	.
.	8ggn\	.
.	8aa-\J	.
.	8aan\L	.
.	8bb-\	.
.	8ccc-\J	.
=239	=239	=239
4r	8cccn\L	.
.	8ddd-\	.
8r	8dddn\J	.
4c-/ 4e-/ 4a-/	8eee-\L	.
.	8ccc-\	.
8r	8aa-\J	.
=240	=240	=240
4d-/ 4g-/ 4b-/	4gg-\)	.
8r	8r	.
4d-/ 4f/ 4cc-/	4.aa-\	.
8r	.	.
*clefF4	*	*
=241	=241	=241
8GG-\L	8gg-'\L	.
8D-\	8r	.
8G-\J	(8g-\J	.
8B-\L	8b-'\L)	.
8G-\	8r	.
8D-\J	(8b-\J	.
=242	=242	=242
8GG-\L	8dd-'\L)	.
8D-\	8r	.
8G-\J	(8dd-\J	.
8B-\L	8gg-'\L)	.
8G-\	8r	.
8D-\J	(8gg-\J	.
=243	=243	=243
8GG-\L	8bb-'\L)	.
8D-\	8r	.
8G-\J	(8bb-'\J	.
8B-\L	8ddd-'\L)	.
8G-\	8r	.
8D-\J	(8gg-\J	.
=244	=244	=244
8GG-\L	8bb-'\L)	.
8D-\	8r	.
8G-\J	(8dd-\J	.
8B-\L	8gg-'\L)	.
8G-\	8r	.
8D-\J	(8b-\J	.
=245	=245	=245
8GG-\L	8dd-'\L)	.
8D-\	8r	.
8G-\J	(8g-\J	.
8B-\L	8b-'\L)	.
8G-\	8r	.
8D-\J	(8a-\J	.
=246	=246	=246
8DD-/L	8cc-'/L)	.
8D-/	8r	.
8F/J	(8f/J	.
8A-\L	8a-'/L)	.
8F\	8r	.
8D-\J	(8f/J	.
=247	=247	=247
8GG-\L	8g-'/L)	.
8D-\	8r	.
8G-\J	(8g-/J	.
8B-\L	8b-'/L)	.
8G-\	8r	.
8D-\J	(8b-/J	.
=248	=248	=248
8GG-\L	8dd-'\L)	.
8D-\	8r	.
8G-\J	(8dd-\J	.
8B-\L	8gg-'\L)	.
8G-\	8r	.
8D-\J	(8gg-\J	.
=249	=249	=249
8GG-\L	(8bb-'\L)	.
8D-\	8r	.
8G-\J	8bb-'\J	.
8B-\L	8ddd-'\L)	.
8G-\	8r	.
8D-\J	(8gg-\J	.
=250	=250	=250
8GG-\L	8bb-'\L)	.
8D-\	8r	.
8G-\J	(8dd-\J	.
8B-\L	8gg-'\L)	.
8G-\	8r	.
8D-\J	(8b-\J	.
=251	=251	=251
8GG-\L	8dd-'\L)	.
8D-\	8r	.
8G-\J	(8b-\J	.
8GG-\L	8dd-'\L)	.
8D-\	8r	.
8G-\J	(8b-\J	.
=252	=252	=252
8FF/L	8ddn'\L)	.
8BB-/	8r	.
8F/J	(8a-\J	.
8BBB-/L	8dd'\L)	.
8FF/	8r	.
8BB-/J	(8dd\J	.
=253	=253	=253
8EE-/L	8ee-'\L)	.
8BB-/	8r	.
8E-/J	(8e-\J	.
8G-\L	8g-'/L)	.
8E-\	8r	.
8BB-\J	(8g-/J	.
=254	=254	=254
8EE-/L	8b-'\L)	.
8BB-/	8r	.
8E-/J	(8b-\J	.
8G-\L	8ee-'\L)	.
8E-\	8r	.
8BB-\J	(8ee-\J	.
=255	=255	=255
8EE-/L	8gg-'\L)	.
8BB-/	8r	.
8E-/J	(8gg-\J	.
8G-\L	8bb-'\L)	.
8E-\	8r	.
8BB-\J	(8ee-\J	.
=256	=256	=256
8EE-/L	8gg-'\L)	.
8BB-/	8r	.
8E-/J	(8b-\J	.
8G-\L	8ee-'\L)	.
8E-\	8r	.
8BB-\J	(8g-\J	.
=257	=257	=257
8EE-/L	8b-'/L)	.
8BB-/	8r	.
8E-/J	(8e-/J	.
8G-\L	8g-'/L)	.
8E-\	8r	.
8BB-\J	(8f/J	.
=258	=258	=258
8BBB-/L	8a-'/L)	.
8BB-/	8r	.
8Dn/J	(8dn/J	.
8F\L	8f'/L)	.
8D\	8r	.
8BB-\J	(8d/J	.
=259	=259	=259
8EE-/L	8e-'/L)	.
8BB-/	8r	.
8E-/J	(8e-/J	.
8G-\L	8g-'/L)	.
8E-\	8r	.
8BB-\J	(8g-/J	.
=260	=260	=260
8EE-/L	8b-'\L)	.
8BB-/	8r	.
8E-/J	(8b-\J	.
8G-\L	8ee-'\L)	.
8E-\	8r	.
8BB-\J	(8ee-\J	.
=261	=261	=261
8EE-/L	8gg-'\L)	.
8BB-/	8r	.
8E-/J	(8gg-\J	.
8G-\L	8bb-'\L)	.
8E-\	8r	.
8BB-\J	(8ee-\J	.
=262	=262	=262
8EE-/L	8gg-'\L)	.
8BB-/	8r	.
8E-/J	(8b-\J	.
8G-\L	8ee-'\L)	.
8E-\	8r	.
8BB-\J	(8g-\J	.
=263	=263	=263
8EE-/L	8b-'/L)	.
8BB-/	8r	.
8E-/J	(8e-/J	.
8G-\L	8g-'/L)	.
8E-\	8r	.
8BB-\J	(8B-/J	.
=264	=264	=264
8E-/L	8e-'/L)	.
8BB-/	8r	.
8GG-/J	(8An/J	.
8BB-/L	8c'/L)	.
8GG-/	8r	.
8EE-'/J	(8A/J	.
=265	=265	=265
4BBB-/	8B-/L)	.
.	8d/	.
8r	8f/J	.
4r	8c#/L	.
.	8d/	.
8r	8f/J	.
=266	=266	=266
8BB-\L	2.r	p
8D\	.	.
8F\J	.	.
8C#\L	.	.
8D\	.	.
8F\J	.	.
=267	=267	=267
2.r	8B-/L	.
.	8d/	.
.	8f/J	.
.	8c#/L	.
.	8d/	.
.	8f/J	.
=268	=268	=268
8BB-\L	2.r	.
8D\	.	.
8F\J	.	.
8C#\L	.	.
8D\	.	.
8F\J	.	.
=269	=269	=269
2.r	8B-/L	.
.	8f/	.
.	8a-/J	.
.	8en/L	.
.	8f/	.
.	8a-/J	.
=270	=270	=270
8BB-\L	2.r	.
8F\	.	.
8A-\J	.	.
8En\L	.	.
8F\	.	.
8A-\J	.	.
=271	=271	=271
2.r	8B-/L	.
.	8f/	.
.	8a-/J	.
.	8en/L	.
.	8f/	.
.	8a-/J	.
=272	=272	=272
8BB-\L	2.r	.
8F\	.	.
8A-\J	.	.
8En\L	.	.
8F\	.	.
8A-\J	.	.
=273	=273	=273
4r	(8B-/L	.
.	8f/	.
8r	8a-/J)	<
(8BB-\L	4r	.
8F\	.	.
8A-\J)	8r	.
=274	=274	=274
4r	(8B-/L	.
.	8f/	.
8r	8a-/J)	.
(8BB-\L	4r	.
8F\	.	.
8A-\J)	8r	.
=275	=275	=275
4r	(8B-/L	.
.	8f/	.
8r	8a-/J)	.
(8BB-\L	4r	.
8F\	.	.
8A-\J)	8r	.
=276	=276	=276
4r	(8B-/L	.
.	8f/	.
8r	8a-/J)	.
(8BB-\L	4r	.
8F\	.	.
8A-\J)	8r	.
=277	=277	=277
2.r	8B-/L	>
.	8f/	.
.	8a-/J	.
.	8B-/L	.
.	8f/	.
.	8a-/J	.
=278	=278	=278
2.r	8B-/L	.
.	8f/	.
.	8a-/J	.
.	8B-/L	.
.	8f/	.
.	8a-/J	.
=279	=279	=279
2.r	8B-/L	pp
.	8f/	.
.	8a-/J	.
.	8B-/L	.
.	8f/	.
.	8a-/J	.
=280	=280	=280
2.r	8B-/L	.
.	8f/	.
.	8a-/J	.
.	8B-/L	.
.	8e-/	.
.	8g/J	.
=281	=281	=281
2.r	8B-/L	.
.	8e-/	.
.	8g/J	.
.	8d/L	.
.	8e-/	.
.	8g/J	.
=282	=282	=282
4r	8B-/L	.
.	8e-/	.
8r	8g/J	.
4r	8d/L	.
.	8e-/	p
*clefG2	*	*
8bb-'\	8g/J	.
=283	=283	=283
(4bb-\	8B-/L	.
.	8f/	.
8aa-\	8a-/J	.
4ff\	8en/L	.
.	8f/	.
8dd\)	8a-/J	.
=284	=284	=284
4ee-\	8B-/L	.
.	8e-/	.
8r	8g/J	.
4r	8d/L	.
.	8e-/	.
*clefF4	*	*
8BB-'/	8g/J	.
=285	=285	=285
(4BB-/	8d/L	.
.	8f/	.
8AA-/	8a-/J	.
4FF/	8B-/L	.
.	8f/	.
8DD/)	8a-/J	.
=286	=286	=286
4EE-/	8B-/L	.
.	8e-/	.
8r	8g/J	.
4r	8d/L	.
.	8e-/	.
8r	8g/J	.
=287	=287	=287
2.r	8B-/L	.
.	8e-/	.
.	8g/J	.
.	8d/L	.
.	8e-/	.
.	8g/J	.
=288	=288	=288
4r	8B-/L	.
.	8e-/	.
8r	8g/J	.
4r	8d/L	.
.	8e-/	.
*clefG2	*	*
8bb-'\	8g/J	.
=289	=289	=289
(4bb-\	8B-/L	.
.	8f/	.
8aa-\	8a-/J	.
4ff\	8en/L	.
.	8f/	.
8dd\)	8a-/J	.
=290	=290	=290
4ee-\	8B-/L	.
.	8e-/	.
8r	8g/J	.
4r	8d/L	.
.	8e-/	.
*clefF4	*	*
8BB-'/	8g/J	.
=291	=291	=291
(4BB-/	8d/L	.
.	8f/	.
8AA-/	8a-/J	.
4FF/	8B-/L	.
.	8f/	.
8DD/)	8a-/J	.
=292	=292	=292
4EE-/	8B-/L	.
.	8e-/	.
8r	8g/J	.
4r	8e-/L	.
.	8g/	.
*clefG2	*	*
8ccc'\	8b-/J	.
=293	=293	=293
(4ccc\	8en/L	.
.	8g/	.
8bb-\	8b-/J	.
4gg\	8c/L	.
.	8g/	.
8een\)	8b-/J	.
=294	=294	=294
4ff\	8c/L	.
.	8f/	.
8r	8a-/J	.
4r	8en/L	.
.	8f/	.
*clefF4	*	*
8C'/	8a-/J	.
=295	=295	=295
(4C/	8en/L	.
.	8g/	.
8BB-/	8b-/J	.
4GG/	8c/L	.
.	8g/	.
8EEn/)	8b-/J	.
=296	=296	=296
4FF/	8c/L	.
.	8f/	.
8r	8a-/J	.
4r	8g/L	.
.	8a-/	.
*clefG2	*	*
8eee-'\	8cc/J	.
=297	=297	=297
(4eee-\	8g/L	.
.	8b-/	.
8ddd-\	8dd-/J	.
4bb-\	8e-/L	.
.	8b-/	.
8gg\)	8dd-/J	.
=298	=298	=298
4aa-\	8e-/L	.
.	8a-/	.
8r	8cc/J	.
4r	8g/L	.
.	8a-/	.
*clefF4	*	*
8E-'\	8cc/J	.
=299	=299	=299
(4E-\	8g/L	.
.	8b-/	.
8D-\	8dd-/J	.
4BB-/	8e-/L	.
.	8b-/	.
8GG/)	8dd-/J	.
=300	=300	=300
4AA-/	8e-/L	.
.	8a-/	.
8r	8cc/J	.
4r	8g/L	.
.	8a-/	.
*clefG2	*	*
8eee-'\	8cc/J	.
=301	=301	=301
(4eee-\	8g/L	.
.	8b-/	.
8ddd-\	8dd-/J	.
4bb-\	8e-/L	.
.	8b-/	.
8gg\)	8dd-/J	.
*clefF4	*	*
=302	=302	=302
(4E-\	8g/L	<
.	8b-/	.
8D-\	8dd-/J	.
4BB-/	8e-/L	.
.	8b-/	.
8GG/)	8dd-/J	.
=303	=303	=303
(4E-\	8g/L	.
.	8b-/	.
8D-\	8dd-/J	.
4BB-/	8e-/L	.
.	8b-/	.
8GG/)	8dd-/J	.
=304	=304	=304
(4E-\	8g/L	.
.	8b-/	.
8D-\	8dd-/J	.
4BB-/	8e-/L	.
.	8b-/	.
8GG/)	8dd-/J	.
=305	=305	=305
8A-\L	8e-/L	f
8E-\	8a-/	.
8C\J	8cc/J	.
8E-/L	8g/L	.
8C/	8a-/	.
8AA-/J	8cc/J	.
=306	=306	=306
8A-\L	8e-/L	.
8E-\	8a-/	.
8C\J	8cc/J	.
8E-/L	8g/L	.
8C/	8a-/	.
8AA-/J	8cc/J	.
=307	=307	=307
8A-\L	8e-/L	.
8E-\	8a-/	.
8C\J	8cc/J	.
8E-/L	8g/L	.
8C/	8a-/	.
8AA-/J	8cc/J	.
=308	=308	=308
8A-\L	8e-/L	.
8E-\	8a-/	.
8C\J	8cc/J	.
8E-/L	8g/L	.
8C/	8a-/	.
8AA-/J	8cc/J	.
=309	=309	=309
[2.AAn\ [2.C\ [2.E-\ [2.G-\ [2.An\	[2.e-\ [2.g-\ [2.an\ [2.cc\ [2.ee-\	ff
=310	=310	=310
4.AA\_ 4.C\_ 4.E-\_ 4.G-\_ 4.A\_	4.e-\_ 4.g-\_ 4.a\_ 4.cc\_ 4.ee-\_	.
4AA;\] 4C;\] 4E-;\] 4G-;\] 4A;\]	4e-;\] 4g-;\] 4a;\] 4cc;\] 4ee-;\]	p
8BB-'/	8r	.
=311	=311	=311
(4BB-/	4r	.
8AA-/	8r	.
4FF/	4r	.
8DD/)	8bb-'\	p
=312	=312	=312
4EE-/	(4bb-\	.
8r	8ggn\)	.
4r	4ee-'\	.
8r	8b-'\	.
=313	=313	=313
2.BB-\ 2.F\ (2.A-\	(4b-/	.
.	8a-/	.
.	4f/	.
.	8d/)	.
=314	=314	=314
4E-\ 4G\)	4e-/	.
8r	8r	.
4r	8r	.
*	*clefF4	*clefF4
.	8A-\L	f
8r	8c\J	.
=315	=315	=315
8AA-/L	8E-\L	.
8EE-/	8A-\	.
8CC/J	8c\J	.
8EE-/L	8G\L	.
8CC/	8A-\	.
8AAA-/J	8c\J	.
=316	=316	=316
8AA-/L	8E-\L	.
8EE-/	8A-\	.
8CC/J	8c\J	.
8EE-/L	8G\L	.
8CC/	8A-\	.
8AAA-/J	8c\J	.
=317	=317	=317
8AA-/L	8E-\L	.
8EE-/	8A-\	.
8CC/J	8c\J	.
8EE-/L	8G\L	.
8CC/	8A-\	.
8AAA-/J	8c\J	.
=318	=318	=318
8AA-/L	8E-\L	.
8EE-/	8A-\	.
8CC/J	8c\J	.
8EE-/L	8G\L	.
8CC/	8A-\	.
8AAA-/J	8c\J	.
=319	=319	=319
[2.AAAn/ [2.CC/ [2.EE-/ [2.GG-/ [2.AAn/	[2.E-\ [2.G-\ [2.An\ [2.c\ [2.e-\	ff
=320	=320	=320
4.AAA/_ 4.CC/_ 4.EE-/_ 4.GG-/_ 4.AA/_	4.E-\_ 4.G-\_ 4.A\_ 4.c\_ 4.e-\_	.
4AAA/] 4CC/] 4EE-/] 4GG-/] 4AA/]	4E-;\] 4G-;\] 4A;\] 4c;\] 4e-;\]	.
*	*clefG2	*clefG2
8r	8bb-\	p
=321	=321	=321
4r	(8bb-\L	.
.	8aa-\	.
8r	8ggn\J	.
4r	8aa-\L	.
.	8ff\	.
8BB-/	8dd\J)	p
=322	=322	=322
(4BB-/	4ee-\	.
8GG/	8r	.
4EE-/)	4r	.
8r	8b-/	.
=323	=323	=323
2.BB-\ 2.F\ (2.A-\	(8b-/L	.
.	8a-/	.
.	8g/J	.
.	8a-/L	.
.	8f/	.
.	8d/J)	.
=324	=324	=324
4E-\ 4G\)	4e-/	.
8r	8r	.
4r	4r	.
8r	8b-'/	.
=325	=325	=325
(4B-\	(4b-/	<
8A-\	8a-/	.
4F\	4f/	.
8D\)	8d/)	.
=326	=326	=326
(4c-\	(4cc-/	.
8A-\	8a-/	.
4F\	4f/	.
8D\)	8d/)	.
=327	=327	=327
(4cn\	(4ccn/	.
8A-\	8a-/	.
4F\	4f/	.
8D\)	8d/)	.
=328	=328	=328
(4c-\	(4cc-/	.
8A-\	8a-/	.
4F\	4f/	.
8D\)	8d/)	.
=329	=329	=329
(4B-\	(4b-/	.
8A-\	8a-/	.
4F\	4f/	.
8D\)	8d/)	.
=330	=330	=330
*^	*	*
4r	4E-\	4e-/	f
8B-/	8BB-\	8r	.
4G/	4GG\	4r	.
8E-/	8EE-\	8r	.
=331	=331	=331	=331
4B-'/	4BB-'\	4r	.
8r	8r	8r	.
4F'/ 4A-'/ 4B-'/ 4d'/	4BBB-'\ 4BB-'\	4r	.
8r	8r	8r	.
*v	*v	*	*
=332	=332	=332
4EE-'/ 4E-'/	4G'/ 4B-'/ 4e-'/	.
8r	8r	.
4BB-'\ 4B-'\	4f'\ 4a-'\ 4b-'\ 4dd'\	.
8r	8r	.
=333	=333	=333
4E-'\ 4e-'\	4g'\ 4b-'\ 4ee-'\	.
8r	8r	.
4r	4r	.
8r	8r	.
=334	=334	=334
4BB-'\ 4B-'\	4dd'\ 4ff'\ 4aa-'\ 4ddd'\	ff
8r	8r	.
4r	4r	.
8r	8r	.
=335	=335	=335
4EE-'/ 4E-'/	4ee-'\ 4gg'\ 4eee-'\	.
4r	4r	.
4r;	4r;	.
==	==	==
*-	*-	*-
!!!ENC: Craig Stuart Sapp
!!!END: 2007/11/27/
